raw-svg/venus.svg

<svg fill="none" height="24" viewBox="0 0 24 24" width="24" xmlns="http://www.w3.org/2000/svg"><path clip-rule="evenodd" d="m12 3.75c-2.89949 0-5.25 2.35051-5.25 5.25 0 2.8995 2.35051 5.25 5.25 5.25 2.8995 0 5.25-2.3505 5.25-5.25 0-2.89949-2.3505-5.25-5.25-5.25zm-6.75 5.25c0-3.72792 3.02208-6.75 6.75-6.75 3.7279 0 6.75 3.02208 6.75 6.75 0 3.4744-2.625 6.3357-6 6.7088v2.0412h2.25c.4142 0 .75.3358.75.75s-.3358.75-.75.75h-2.25v1.75c0 .4142-.3358.75-.75.75s-.75-.3358-.75-.75v-1.75h-2.25c-.41421 0-.75-.3358-.75-.75s.33579-.75.75-.75h2.25v-2.0412c-3.37496-.3731-6-3.2344-6-6.7088z" fill="#000" fill-rule="evenodd"/></svg>

<svg width="24" height="24" viewBox="0 0 24 24" fill="none" xmlns="http://www.w3.org/2000/svg">
<path fill-rule="evenodd" clip-rule="evenodd" d="M12 3.75C9.10051 3.75 6.75 6.10051 6.75 9C6.75 11.8995 9.10051 14.25 12 14.25C14.8995 14.25 17.25 11.8995 17.25 9C17.25 6.10051 14.8995 3.75 12 3.75ZM5.25 9C5.25 5.27208 8.27208 2.25 12 2.25C15.7279 2.25 18.75 5.27208 18.75 9C18.75 12.4744 16.125 15.3357 12.75 15.7088V17.75H15C15.4142 17.75 15.75 18.0858 15.75 18.5C15.75 18.9142 15.4142 19.25 15 19.25H12.75V21C12.75 21.4142 12.4142 21.75 12 21.75C11.5858 21.75 11.25 21.4142 11.25 21V19.25H9C8.58579 19.25 8.25 18.9142 8.25 18.5C8.25 18.0858 8.58579 17.75 9 17.75H11.25V15.7088C7.87504 15.3357 5.25 12.4744 5.25 9Z" fill="black"/>
</svg>
